!!!SOCIAL_FUNCTION:	songs connected with war and hunting
!!!PDT:	1932
!!!OTL: No_42_He_Carries_the_War_Bundle.krn
!!!REG: Wisconsin
!!!LANG: Non-Tone
!!!LING_GROUP: Algonquin
**kern
*staff1
=1-
*clefF4
*k[]
*M2/4
4r
8r
16r
16d\
=2
4d\
16d\LK
8.c\J
=3
4d\
8e\L
8d\J
=4
8c\L
8c\J
8.c\L
16G\Jk
=5
4G\
16A\LK
8.A\J
=6
8G\
8r
8A\L
8A\J
=7
8G\L
8G\J
8G\
16r
16c\
=8
4c\
16c\LK
8.A\J
=9
4c\
8d\L
8c\J
=10
8A\L
8A\J
4A\
=11
4G\
16A\LK
8.A\J
=12
8G\
8r
8A\L
8A\J
=13
8G\L
8G\J
4G\
=14
4D\
16C/LK
8.C/J
=15
8D\
8r
8E\L
8D\J
=16
8C/L
8C/J
4C/
=17
4GG/
16AA/LK
8.AA/J
=18
8GG/
8r
8AA/L
8AA/J
=19
8GG/L
8GG/J
4GG/
=20
4GG/
4GG/
==
*-
